!!!OTL: The Suit of Green, S. 86
!!!id: I0527
**kern
*clefG2
*k[]
*C:
{8.g
16g
=1
4.cc
8cc
4b
4b
=2
4.a
8f
4d
8e
8f
=3
4.g
8b
8a
8g
8e
8d
=4
4.c
8c
4.c
=5
16cccc
16cccc}
{8e
=6
4.g
8e
4d
4e
=7
4.g
8e
4d
8b
8cc
=8
4dd
8b
8dd
8cc
8b
8a
8g
=9
8f
8e
8d
8e
4d
8r
16dddd
16cccc}
=10yy
{8e
=11
8f
4g
8e
4d
4e
=12
4.g
8e
4d
8b
8cc
=13
4dd
8b
8dd
8cc
8b
8a
8g
=14
8f
8e
8d
8e
4d
16r
16c
16eeee
16cccc}
=15yy
{8g
=16
4cc
8b
8cc
4dd
8cc
8b
=17
4.a
8f
4d
8e
8f
=18
4.g
8b
8a
8g
8e
8d
=19
4.c
8c
4c}
==
*-
!!!minrhy: 16
!!!meters: 4/4 ]  ZZ[4
!!!cut: The Suit of Green, S. 86
!!!reg: Irland
!!!trd: O BOYLE, Sean: 25 Irish Folksongs, Dublin 1976
!!!rhy1: X_.X  X__.X_X__X__  X__.X_X__X_X_  X__.X_X_X_X_X_  X__.X_X__.
!!!rhy2: X_  X__.X_X__X__  X__.X_X__X_X_  X__X_X_X_X_X_X_  X_X_X_X_X__0_
!!!key: I0527  16  C 4/4 ]  ZZ[4
!!!mod: HEPTATONIK IONISCH] AMBITUS[9
!!!kad: 1221
!!!akz: +17625611_5252+2+142_4252+2+142_+1+2625611_
!!!fot: 'a__b__bw_aw_
!!!for: 'a__b__c__d__
!!!fok: 'Md_$d_$d_Md_
!! PHRAS[AUFTAKTIG]
!!!fkt: Ballade, politisches Lied
!!!bem: "Ballads and Rebel Songs"
!! IRISCHE VKL.
!! PR[23] 2K[17] 2G[17] 3K[0] 3G[0] 4A[0] 4Ü[0] 5A[0] 6K[0] 6G[0]
!! 7K[4] 7G[0] 8A[0] MEHR[0] SI[38] ABS[52] SR[35] SP[4]
!! ST[24] 2k[8] 2g[8] 3k[15] 3g[4] 4d[4] 4ü[0] 5d[0] 6k[0] 6g[0]
!! 7k[0] 7g[0] 8d[0] mehr[0] si[38] dm[0] sr[15] sp[23]
!! 1F[21] 2F[52] 3F[11] 4F[0] LF[0] 2P[8] 3P[7] 4P[0] TRI[0] DF[5] AB[61]
!! TF[0] U3K[0] U3[0] U4[0] U4Ü[0] U5[0] U6K[0] U6[0] U7K[0] U7[0]
!! N1[25] N2K[0] N2[6] N3K[0] N3[11] N4[13] N4Ü[0] N5[19] N6K[0] N6[11]
!!!n7k: 11] N7[0] O1[4] O2K[0] O2[0] O3K[0] O3[0] HÖ[0
